!!!!SEGMENT: Mou3007-Mais_que_ce_fust_le_plaisir_delle.krn
!!!id: Mou3007
!!!AGN: Chanson
!!!voices: 3
!!!COM: Jean Mouton
!!!OTL: Mais que ce fust le plaisir d'elle
**kern	**kern	**kern
*part3	*part2	*part1
*staff3	*staff2	*staff1
*I"Bassus	*I"Tenor	*I"Superius
*I'B	*I'T	*I'S
*clefGv2	*clefGv2	*clefGv2
*k[b-]	*k[b-]	*k[b-]
*F:	*F:	*F:
*M2/1	*M2/1	*M2/1
*met(C|)	*met(C|)	*met(C|)
1r	0r	0r
1d	.	.
=1	=1	=1
2d	0r	1r
2e	.	.
[1f	.	1d
=2	=2	=2
2f]	1r	2d
2e	.	2e
[1d	1d	[1f
=3	=3	=3
2d]	2d	2f]
2c	2e	2e
1B-y	[1f	[1d
=4	=4	=4
1A	2f]	2d]
.	2e	2c
1r	[1d	1B-y
=5	=5	=5
1D	2d]	1A
.	2c	.
2D	1B-y	1d
2E	.	.
=6	=6	=6
1.F	1A	2.c
.	.	4B-y
.	1c	4A
.	.	4G
2F	.	[2A
=7	=7	=7
2G	2B-y	4A]
.	.	4G
2E	2G	1G
1D	1A	.
.	.	2F#i
=8	=8	=8
1G	1G	0G
2r	1r	.
2G	.	.
=9	=9	=9
2A	0r	2r
2B-y	.	2G
2.c	.	2.A
4B-y	.	4B-y
=10	=10	=10
4A	0r	1.c
4G	.	.
1F	.	.
4E	.	2d
4D	.	.
=11	=11	=11
2C	1r	2.e
1c	.	.
.	.	8dL
.	.	8cJ
.	2r	2d
2BnXi	2G	2d
=12	=12	=12
2c	2A	2c
2G	2B-y	2.g
2r	[1c	.
.	.	4f
[2A	.	4e
.	.	4d
=13	=13	=13
2A]	2c]	2e
2B-y	2d	2.d
2.c	2.e	.
.	.	4c
.	.	[2c
8B-yL	8dL	.
8AJ	8cJ	.
=14	=14	=14
4G	2d	2c]
4F	.	.
2G	2d	2BnXi
1C	[1c	[1c
=15	=15	=15
1r	0c_	1c]
1F	.	1r
=16	=16	=16
2F	1c]	1r
2E	.	.
2.D	1r	1f
4E	.	.
=17	=17	=17
4F	0r	2f
4D	.	.
1G	.	2e
.	.	[1d
4F	.	.
4E	.	.
=18	=18	=18
2D	0r	2d]
2.B-y	.	2d
.	.	2c
4A	.	.
[2A	.	4B-y
.	.	4A
=19	=19	=19
2A]	0r	2B-y
2G	.	2B-y
1A	.	[1A
=20	=20	=20
1c	1r	1A]
2B-y	1f	1r
2B-y	.	.
=21	=21	=21
1A	2f	1c
.	2e	.
2r	[1d	2B-y
2G	.	2B-y
=22	=22	=22
2F	2d]	2A
2G	2d	2.B-y
2A	2c	.
.	.	4A
2F	4B-y	[2A
.	4A	.
=23	=23	=23
1G	2B-y	2A]
.	2B-y	2G
1r	[1A	[1A
=24	=24	=24
1D	0A_	1A]
2D	.	1r
2E	.	.
=25	=25	=25
2.F	1A]	1r
4E	.	.
4F	1r	1d
4D	.	.
[2G	.	.
=26	=26	=26
2G]	1r	2d
4F	.	2e
4E	.	.
1D	1d	[1f
=27	=27	=27
1r	2d	2f]
.	2e	2e
2r	[1f	2.d
4D	.	.
4E	.	8cL
.	.	8B-yJ
=28	=28	=28
4F	2f]	2A
4G	.	.
2.A	2e	2c
.	[1d	2B-y
4G	.	.
[2G	.	4A
.	.	4G
=29	=29	=29
4G]	2d]	1A
4F#i	.	.
4F#i	2c	.
4E	.	.
1G	1B-y	2G
.	.	4d
.	.	4e
=30	=30	=30
0r	2A	4f
.	.	4g
.	2c	2.a
.	2B-y	.
.	.	4g
.	4A	[2g
.	4G	.
=31	=31	=31
1r	1A	2g]
.	.	2f#i
1d	[1G	1g
=32	=32	=32
2d	1G]	1r
2e	.	.
[1f	1r	1d
=33	=33	=33
2f]	1r	2d
2e	.	2e
[1d	1d	[1f
=34	=34	=34
2d]	2d	2f]
2c	2e	2e
1B-y	[1f	[1d
=35	=35	=35
1A	2f]	2d]
.	2e	2c
1r	[1d	1B-y
=36	=36	=36
1D	2d]	1A
.	2c	.
2D	1B-y	1d
2E	.	.
=37	=37	=37
1.F	1A	2.c
.	.	4B-y
.	1c	4A
.	.	4G
2F	.	[2A
=38	=38	=38
2G	2B-y	4A]
.	.	4G
2E	2G	1G
1D	1A	.
.	.	2F#i
=39	=39	=39
1G	2.G	4G
.	.	4A
.	.	4B-y
.	4A	4c
1r	4B-y	4d
.	4c	4e
.	[2d	[2f
=40	=40	=40
1.D	2d]	2f]
.	4c	4e
.	4B-y	4d
.	2A	2f
2C	[2c	[2e
=41	=41	=41
1E	4c]	4e]
.	4B-y	4d
.	2G	2.g
1D	1A	.
.	.	4f#i
.	.	4f#i
.	.	4e
=42	=42	=42
00Gl	00Gl	00gl
==	==	==
*-	*-	*-
!!!system-decoration: [*]
!!!RDF**kern: i = editorial accidental
!!!RDF**kern: l = terminal long
!!!ENC: Benjamin Ory
!!!END: 2024/4/20
!!!EED: Benjamin Ory
!!!EEV: 2024/4/20
!!!YEC: Copyright 2024 Benjamin Ory, All Rights Reserved
!!!ONB: Translated from MusicXML on 2024/4/20
